icons/2_Variations/Obsidian Entertainment bg.var.svg

<svg width="1024" height="1024" viewBox="0 0 1024 1024" fill="none" xmlns="http://www.w3.org/2000/svg">
<g clip-path="url(#clip0_3_206)">
<path d="M512 1024C794.77 1024 1024 794.77 1024 512C1024 229.23 794.77 0 512 0C229.23 0 0 229.23 0 512C0 794.77 229.23 1024 512 1024Z" fill="#56595B"/>
<path d="M744.001 397.55C732.921 371.36 712.571 359.07 693.631 341.14C684.151 329 674.881 317 665.411 304.87C621.491 274.25 555.011 257.12 482.081 256.52C464.151 270.42 409.751 278.28 385.381 288.75C337.031 309.5 311.241 346.75 284.651 389.48C281.831 394.11 274.381 400.36 272.561 405.6C271.151 418.29 269.941 431.19 268.561 443.88C265.561 456.57 258.291 473.09 256.471 484.17C254.471 496.86 259.891 524.26 262.471 536.55C263.071 548.64 263.881 560.73 264.471 572.81C278.001 623.59 304.191 657.44 331.001 693.7C333.621 697.33 333.821 702.97 337.001 705.79C349.891 717.88 372.051 720.7 387.371 729.97C401.271 738.43 416.581 751.97 431.691 758.18C463.691 771.68 561.841 769.46 598.911 758.18C611.001 754.55 632.151 747.5 643.231 740.05C655.921 731.59 665.231 715.05 677.481 705.8C761.911 642.13 794.551 517.62 744.001 397.55ZM691.621 540.55V570.77C688.621 578.22 678.121 586.28 673.491 592.93C664.631 605.62 659.991 624.16 649.311 635.24C627.751 657.4 590.681 671.5 558.651 683.59C547.371 687.82 525.411 702.93 510.301 699.71C501.231 697.71 490.561 688.23 482.091 685.61H439.771C424.661 680.61 408.341 660.23 397.461 649.35C382.151 634.04 358.171 617.72 349.111 596.97C324.731 540.76 339.641 427.13 371.271 385.43C382.151 371.13 443.601 338.29 463.941 331.03C473.611 327.61 491.741 332.03 500.201 327.03C533.641 327.03 562.861 327.23 586.831 337.1C610.201 346.57 653.111 396.1 671.451 415.67C679.911 426.75 675.881 447.9 681.521 462.01C685.151 471.28 694.821 481.35 697.641 490.22C702.081 503.92 694.221 528.9 691.601 540.59L691.621 540.55Z" fill="white"/>
</g>
<defs>
<clipPath id="clip0_3_206">
<rect width="1024" height="1024" fill="white"/>
</clipPath>
</defs>
</svg>

<svg width="1024" height="1024" fill="none" xmlns="http://www.w3.org/2000/svg"><g clip-path="url(#a)"><path d="M512 1024c282.77 0 512-229.23 512-512S794.77 0 512 0 0 229.23 0 512s229.23 512 512 512Z" fill="#56595B"/><path d="M744.001 397.55c-11.08-26.19-31.43-38.48-50.37-56.41-9.48-12.14-18.75-24.14-28.22-36.27-43.92-30.62-110.4-47.75-183.33-48.35-17.93 13.9-72.33 21.76-96.7 32.23-48.35 20.75-74.14 58-100.73 100.73-2.82 4.63-10.27 10.88-12.09 16.12-1.41 12.69-2.62 25.59-4 38.28-3 12.69-10.27 29.21-12.09 40.29-2 12.69 3.42 40.09 6 52.38.6 12.09 1.41 24.18 2 36.26 13.53 50.78 39.72 84.63 66.53 120.89 2.62 3.63 2.82 9.27 6 12.09 12.89 12.09 35.05 14.91 50.37 24.18 13.9 8.46 29.21 22 44.32 28.21 32 13.5 130.15 11.28 167.22 0 12.09-3.63 33.24-10.68 44.32-18.13 12.69-8.46 22-25 34.25-34.25 84.43-63.67 117.07-188.18 66.52-308.25Zm-52.38 143v30.22c-3 7.45-13.5 15.51-18.13 22.16-8.86 12.69-13.5 31.23-24.18 42.31-21.56 22.16-58.63 36.26-90.66 48.35-11.28 4.23-33.24 19.34-48.35 16.12-9.07-2-19.74-11.48-28.21-14.1h-42.32c-15.11-5-31.43-25.38-42.31-36.26-15.31-15.31-39.29-31.63-48.35-52.38-24.38-56.21-9.47-169.84 22.16-211.54 10.88-14.3 72.33-47.14 92.67-54.4 9.67-3.42 27.8 1 36.26-4 33.44 0 62.66.2 86.63 10.07 23.37 9.47 66.28 59 84.62 78.57 8.46 11.08 4.43 32.23 10.07 46.34 3.63 9.27 13.3 19.34 16.12 28.21 4.44 13.7-3.42 38.68-6.04 50.37l.02-.04Z" fill="#fff"/></g><defs><clipPath id="a"><path fill="#fff" d="M0 0h1024v1024H0z"/></clipPath></defs></svg>
